**kern	**kern	**dynam
*part1	*part1	*part1
*staff2	*staff1	*
*I"Piano	*	*
*clefF4	*clefG2	*
*k[f#c#g#]	*k[f#c#g#]	*
=1	=1	=1
!	!LO:TX:a:B:t=Andantino	!
4E	4e]	.
(4AA	(4c# 4e 4a	pp
=	=	=
4D	4d 4f# 4a	.
4AA	4c# 4e 4a	.
=	=	=
4D	4d 4f# 4a	.
4AA	4c# 4e 4a	.
=	=	=
4D	4d 4f# 4a	.
4AA	4c# 4e 4a	.
=	=	=
4C#	4c# 4e 4g#	.
4FF#	4c# 4f# 4a	.
=	=	=
4D	4A 4d 4f#	.
4BB	4d 4e 4g#	.
=	=	=
4C#	4c# 4e 4a	.
4D	4B 4f# 4b	.
=	=	=
*-	*-	*-
!!!system-decoration: {(s1,s2)}
